X:1
T:Sommervals
M:3/4
L:1/8
K:G
C:Ale Moller
d2c2|:"G"B3A G2|"D"A4F2|"C"G6|E3FE2|"G"D2G2A2|"Am"c4B2|!
(3BcB A2G2|"D7"Ad3c2|"G"B3AG2|"D"A4F2|"C"G6|E3FE2|"G"D2E2G2|!
"D7"G4F2|1"G"G6-|G2d2c2:|2"G"G6-|G2 F2G2||:"D"A3AA2|A2F2D2|"D7"c6|!
"G"B3AG2|"Am"E2 ABc2|"Bm"d3c BA|"Em"G2F2G2|"D"AB3A2|"Em"G3AG2|"Bm"F3GF2|!
"C"E3FE2|"D"D2E2G2|"G"B3AG2|"D7"A2 {Bc}d2D2|1"G"G6-|G2F2G2:|2"G"G6-|G2|]!
